X: 9580
T:Feely Kearney's
R:Reel
S:Bernie Stocks, Belfast (fiddle).
H:Feely Kearney is a fiddle player from Tyrone. There is a rumour that this was composed
H:by Artie McGlynn, his nephew.
N:As played
M:4/4
Z:Bernie Stocks
K:D
|: afge fd(3.d.d.d | A=cBG ADD2 | FD(3EFG AGA=c | {d}=cBcd e^cA2 | afge fd(3.d.d.d |
A=cBG ADD2 | FD (3EFG AGAB | =cAGE {G}EDD2 :: =cAce gece | dcdf afdf |
gfeg fedf | efed cAA2 | ~=c3e gece | ~d3f afdf | gfeg fedB | ABAG FDD2 :|
